X:1
T: Miss Charteri
C:
R:Reel
Q: 232
K:Gm
M:4/4
L:1/8
|:d|ga ba g2 fd|cd fg ag fa|ga ba g2 fd|cd fA G2 Gd|
ga ba g2 fd|cd fg ag fa|ga ba g2 fd|cd fA G2 Gc|
B1/2c1/2d BG Bd gB|A1/2B1/2c AF Ac fA|B1/2c1/2d BG Bd gB|AG ^FA G2 Gc|
B1/2c1/2d BG Bd gB|A1/2B1/2c AF Ac fA|Bc de fg fd|cf cA G2 G:|
